Papirus/64x64/apps/phasmophobia.svg

<svg xmlns="http://www.w3.org/2000/svg" width="64" height="64" version="1.1">
 <rect style="opacity:0.2" width="56" height="56" x="4" y="5" rx="5.6" ry="5.6"/>
 <rect style="fill:#5d5d5d" width="56" height="56" x="4" y="4" rx="5.6" ry="5.6"/>
 <path style="fill:#ffffff;opacity:0.2" d="M 9.5996094 4 C 6.4972125 4 4 6.4972125 4 9.5996094 L 4 10.599609 C 4 7.4972125 6.4972125 5 9.5996094 5 L 54.400391 5 C 57.502787 5 60 7.4972125 60 10.599609 L 60 9.5996094 C 60 6.4972125 57.502787 4 54.400391 4 L 9.5996094 4 z"/>
 <path style="opacity:0.2;fill:#ffffff" d="m 29,9 v 1 h -2 v 1 h -3 v 1 h -1 v 1 h 1 v 1 l -2,2 h -1 v 2 h 3 v -2 l 1,-1 v 4 h 1 v 2 h 1 v 5 h 1 v 7 h -3 v 1 h 1 v 1 h 1 1 v 3 h 1 v 3 h -1 v 2 h 1 v 5 h 1 v 3 h 1 v 4 h 1 v 2 h 1 v -4 h -1 v -3 -1 h -1 v -6 h -1 v -1 h 1 v -4 -3 h 1 v -1 h 1 v 1 h 1 l 4,-4 v 1 h 1 l 4,-5 v -2 h 1 v -1 h 1 v -3 h 1 V 15 H 45 V 14 H 44 V 13 H 42 V 12 H 41 V 11 H 40 38 V 10 H 35 V 9 Z m -2,5 h 2 v 6 h -1 v -3 h -1 z m 5,0 h 6 v 2 h 2 v -1 h 1 v 6 l -2,2 v 2 l -2,1 v 1 l -2,1 v 1 l -3,3 h -2 v -8 h 1 v -8 h 1 z"/>
 <path style="fill:#ffffff" d="m 29,8 v 1 h -2 v 1 h -3 v 1 h -1 v 1 h 1 v 1 l -2,2 h -1 v 2 h 3 v -2 l 1,-1 v 4 h 1 v 2 h 1 v 5 h 1 v 7 h -3 v 1 h 1 v 1 h 1 1 v 3 h 1 v 3 h -1 v 2 h 1 v 5 h 1 v 3 h 1 v 4 h 1 v 2 h 1 v -4 h -1 v -3 -1 h -1 v -6 h -1 v -1 h 1 v -4 -3 h 1 v -1 h 1 v 1 h 1 l 4,-4 v 1 h 1 l 4,-5 v -2 h 1 v -1 h 1 v -3 h 1 V 14 H 45 V 13 H 44 V 12 H 42 V 11 H 41 V 10 H 40 38 V 9 H 35 V 8 Z m -2,5 h 2 v 6 h -1 v -3 h -1 z m 5,0 h 6 v 2 h 2 v -1 h 1 v 6 l -2,2 v 2 l -2,1 v 1 l -2,1 v 1 l -3,3 h -2 v -8 h 1 v -8 h 1 z"/>
</svg>

<svg xmlns="http://www.w3.org/2000/svg" width="64" height="64" version="1.1">
 <rect style="opacity:0.2" width="56" height="56" x="4" y="5" rx="5.6" ry="5.6"/>
 <rect style="fill:#5d5d5d" width="56" height="56" x="4" y="4" rx="5.6" ry="5.6"/>
 <path style="fill:#ffffff;opacity:0.1" d="M 9.5996094 4 C 6.4972125 4 4 6.4972125 4 9.5996094 L 4 10.599609 C 4 7.4972125 6.4972125 5 9.5996094 5 L 54.400391 5 C 57.502787 5 60 7.4972125 60 10.599609 L 60 9.5996094 C 60 6.4972125 57.502787 4 54.400391 4 L 9.5996094 4 z"/>
 <path style="opacity:0.2" d="M 29,9 V 10 H 27 V 11 H 24 V 12 H 23 V 13 H 24 V 14 L 22,16 H 21 V 18 H 24 V 16 L 25,15 V 19 H 26 V 21 H 27 V 26 H 28 V 33 H 25 V 34 H 26 V 35 H 28 V 38 H 29 V 41 H 28 V 43 H 29 V 48 H 30 V 51 H 31 V 55 H 32 V 57 H 33 V 53 H 32 V 49 H 31 V 43 H 30 V 42 H 31 V 35 H 32 V 34 H 33 V 35 H 34 L 38,31 V 32 H 39 L 43,27 V 25 H 44 V 24 H 45 V 21 H 46 V 15 H 45 V 14 H 44 V 13 H 42 V 12 H 41 V 11 H 38 V 10 H 35 V 9 Z M 27,14 H 29 V 20 H 28 V 17 H 27 Z M 32,14 H 38 V 16 H 40 V 15 H 41 V 21 L 39,23 V 25 L 37,26 V 27 L 35,28 V 29 L 32,32 H 30 V 24 H 31 V 16 H 32 Z"/>
 <path style="fill:#ffffff" d="M 29,8 V 9 H 27 V 10 H 24 V 11 H 23 V 12 H 24 V 13 L 22,15 H 21 V 17 H 24 V 15 L 25,14 V 18 H 26 V 20 H 27 V 25 H 28 V 32 H 25 V 33 H 26 V 34 H 28 V 37 H 29 V 40 H 28 V 42 H 29 V 47 H 30 V 50 H 31 V 54 H 32 V 56 H 33 V 52 H 32 V 48 H 31 V 42 H 30 V 41 H 31 V 34 H 32 V 33 H 33 V 34 H 34 L 38,30 V 31 H 39 L 43,26 V 24 H 44 V 23 H 45 V 20 H 46 V 14 H 45 V 13 H 44 V 12 H 42 V 11 H 41 V 10 H 38 V 9 H 35 V 8 Z M 27,13 H 29 V 19 H 28 V 16 H 27 Z M 32,13 H 38 V 15 H 40 V 14 H 41 V 20 L 39,22 V 24 L 37,25 V 26 L 35,27 V 28 L 32,31 H 30 V 23 H 31 V 15 H 32 Z"/>
</svg>
